flags/sk.svg

<svg width="512" height="512" viewBox="0 0 512 512" fill="none" xmlns="http://www.w3.org/2000/svg">
<rect y="136" width="512" height="240" fill="var(--flag-palette-blue, #0052b4)"/>
<rect y="344" width="512" height="168" fill="var(--flag-palette-bright-red, #d80027)"/>
<rect width="512" height="168" fill="var(--flag-palette-white, #eeeeee)"/>
<path d="M66.1982 144.695V272.401C66.1982 345.045 161.099 367.304 161.099 367.304C161.099 367.304 255.999 345.045 255.999 272.401V144.695H66.1982Z" fill="var(--flag-palette-white, #eeeeee)"/>
<path d="M88.459 144.695V272.401C88.459 280.929 90.353 288.983 94.105 296.534H228.092C231.844 288.984 233.738 280.929 233.738 272.401V144.695H88.459Z" fill="var(--flag-palette-bright-red, #d80027)"/>
<path d="M205.62 233.739H172.23V211.478H194.491V189.217H172.23V166.957H149.969V189.217H127.709V211.478H149.969V233.739H116.577V256H149.969V278.261H172.23V256H205.62V233.739Z" fill="var(--flag-palette-white, #eeeeee)"/>
<path d="M124.471 327.61C138.816 336.625 153.554 341.859 161.099 344.187C168.644 341.86 183.382 336.625 197.727 327.61C212.193 318.518 222.334 308.12 228.092 296.535C221.741 292.042 213.992 289.392 205.621 289.392C202.573 289.392 199.612 289.753 196.765 290.416C190.732 276.708 177.037 267.131 161.1 267.131C145.163 267.131 131.467 276.708 125.435 290.416C122.588 289.753 119.626 289.392 116.579 289.392C108.208 289.392 100.459 292.042 94.1084 296.535C99.8634 308.119 110.004 318.517 124.471 327.61Z" fill="var(--flag-palette-blue, #0052b4)"/>
</svg>

<svg xmlns="http://www.w3.org/2000/svg" width="512" height="512" fill="none"><path fill="var(--flag-palette-blue, #0052b4)" d="M0 136h512v240H0z"/><path fill="var(--flag-palette-bright-red, #d80027)" d="M0 344h512v168H0z"/><path fill="#EEE" d="M0 0h512v168H0z"/><path fill="#EEE" d="M66.2 144.7v127.7c0 72.6 94.9 94.9 94.9 94.9S256 345 256 272.4V144.7z"/><path fill="var(--flag-palette-bright-red, #d80027)" d="M88.5 144.7v127.7q0 12.8 5.6 24.1h134a54 54 0 0 0 5.6-24.1V144.7z"/><path fill="#EEE" d="M205.6 233.7h-33.4v-22.2h22.3v-22.3h-22.3V167H150v22.2h-22.3v22.3H150v22.2h-33.4V256H150v22.3h22.2V256h33.4z"/><path fill="var(--flag-palette-blue, #0052b4)" d="M124.5 327.6a160 160 0 0 0 36.6 16.6c7.5-2.3 22.3-7.6 36.6-16.6a80 80 0 0 0 30.4-31 39 39 0 0 0-31.3-6.2 39 39 0 0 0-71.4 0 39 39 0 0 0-31.3 6.1 80 80 0 0 0 30.4 31.1"/></svg>
